X: 530
M: C|
L: 1/8
K: D
|:\
|:\
e2e2 efed | c2A2 A2c2 | d2f2 efge | f6 fg |\
afdf gece | fdBd ecAc | dfef gfed | d8 :|

